packages/core/src/svgs/bdx.svg

<svg width="24" height="24" viewBox="0 0 24 24" fill="none" xmlns="http://www.w3.org/2000/svg">
<g clip-path="url(#clip0_31_6923)">
<path d="M0 0H24V24H0V0Z" fill="#F0F3FA"/>
<path fill-rule="evenodd" clip-rule="evenodd" d="M12.0001 19.2856C13.9323 19.2856 15.7855 18.518 17.1518 17.1517C18.5182 15.7854 19.2858 13.9322 19.2858 11.9999C19.2858 10.0676 18.5182 8.21449 17.1518 6.84815C15.7855 5.48182 13.9323 4.71422 12.0001 4.71422C10.0678 4.71422 8.21461 5.48182 6.84827 6.84815C5.48194 8.21449 4.71434 10.0676 4.71434 11.9999C4.71434 13.9322 5.48194 15.7854 6.84827 17.1517C8.21461 18.518 10.0678 19.2856 12.0001 19.2856ZM12.0001 19.7142C13.0131 19.7142 14.0162 19.5147 14.9522 19.127C15.8881 18.7393 16.7385 18.1711 17.4549 17.4548C18.1712 16.7384 18.7394 15.888 19.1271 14.9521C19.5148 14.0161 19.7143 13.013 19.7143 11.9999C19.7143 10.9869 19.5148 9.98374 19.1271 9.0478C18.7394 8.11186 18.1712 7.26144 17.4549 6.54511C16.7385 5.82877 15.8881 5.26054 14.9522 4.87286C14.0162 4.48518 13.0131 4.28564 12.0001 4.28564C9.9541 4.28564 7.99194 5.0984 6.54523 6.54511C5.09852 7.99182 4.28577 9.95397 4.28577 11.9999C4.28577 14.0459 5.09852 16.008 6.54523 17.4548C7.99194 18.9015 9.9541 19.7142 12.0001 19.7142Z" fill="#35AF3B"/>
<path fill-rule="evenodd" clip-rule="evenodd" d="M16.2857 6.64307V14.1431C16.2857 14.3704 16.1954 14.5884 16.0347 14.7492C15.874 14.9099 15.6559 15.0002 15.4286 15.0002H10.7143C10.487 15.0002 10.269 14.9099 10.1082 14.7492C9.94748 14.5884 9.85718 14.3704 9.85718 14.1431V9.42878C9.85718 8.95735 10.2429 8.57164 10.7143 8.57164H15.1629L16.2857 6.64307ZM11.5715 10.7145C11.5715 10.6008 11.6166 10.4918 11.697 10.4114C11.7774 10.3311 11.8864 10.2859 12 10.2859H14.1429C14.2566 10.2859 14.3656 10.3311 14.4459 10.4114C14.5263 10.4918 14.5715 10.6008 14.5715 10.7145V12.8574C14.5715 12.971 14.5263 13.08 14.4459 13.1604C14.3656 13.2408 14.2566 13.2859 14.1429 13.2859H12C11.8864 13.2859 11.7774 13.2408 11.697 13.1604C11.6166 13.08 11.5715 12.971 11.5715 12.8574V10.7145Z" fill="url(#paint0_linear_31_6923)"/>
<path d="M14.5715 12.8574C14.5715 12.971 14.5263 13.08 14.4459 13.1604C14.3656 13.2408 14.2566 13.2859 14.1429 13.2859H11.1172C10.7143 13.2859 10.2257 13.2559 9.85718 12.6431V14.1431C9.85718 14.6145 10.2429 15.0002 10.7143 15.0002H13.7143C14.2457 15.0002 14.5715 14.5716 14.5715 14.1431V12.8574Z" fill="url(#paint1_linear_31_6923)"/>
<path d="M12.8572 8.57129H10.7143C10.487 8.57129 10.269 8.6616 10.1082 8.82234C9.94748 8.98309 9.85718 9.2011 9.85718 9.42843V12.6427C10.2257 13.2556 10.7143 13.2856 11.1172 13.2856H12C11.8864 13.2856 11.7774 13.2404 11.697 13.16C11.6166 13.0797 11.5715 12.9707 11.5715 12.857V10.7141C11.5715 10.6005 11.6166 10.4915 11.697 10.4111C11.7774 10.3307 11.8864 10.2856 12 10.2856H12.8572V8.57129Z" fill="url(#paint2_linear_31_6923)"/>
<path fill-rule="evenodd" clip-rule="evenodd" d="M7.28577 8.78564V16.2856C7.28577 16.7571 7.67148 17.1428 8.14291 17.1428H12.8572C13.0845 17.1428 13.3025 17.0525 13.4633 16.8917C13.624 16.731 13.7143 16.513 13.7143 16.2856V11.5714C13.7143 11.344 13.624 11.126 13.4633 10.9653C13.3025 10.8045 13.0845 10.7142 12.8572 10.7142H8.40862L7.28577 8.78564ZM12.0001 12.8571C12.0001 12.7434 11.9549 12.6344 11.8745 12.554C11.7942 12.4737 11.6851 12.4285 11.5715 12.4285H9.42862C9.31496 12.4285 9.20595 12.4737 9.12558 12.554C9.0452 12.6344 9.00005 12.7434 9.00005 12.8571V14.9999C9.00005 15.1136 9.0452 15.2226 9.12558 15.303C9.20595 15.3833 9.31496 15.4285 9.42862 15.4285H11.5715C11.6851 15.4285 11.7942 15.3833 11.8745 15.303C11.9549 15.2226 12.0001 15.1136 12.0001 14.9999V12.8571Z" fill="url(#paint3_linear_31_6923)"/>
<path d="M7.28577 14.7856V16.2856C7.28577 16.7571 7.67148 17.1428 8.14291 17.1428H11.1429C11.6572 17.1428 12.0001 16.9285 12.0001 16.2856V14.9999C12.0001 15.1136 11.9549 15.2226 11.8745 15.303C11.7942 15.3833 11.6851 15.4285 11.5715 15.4285H8.3572C7.92862 15.4285 7.53862 15.2914 7.28577 14.7856Z" fill="url(#paint4_linear_31_6923)"/>
<path d="M10.7143 10.7142H8.40862L7.28577 8.78564V14.7856C7.53862 15.2914 7.92862 15.4285 8.3572 15.4285H9.42862C9.31496 15.4285 9.20595 15.3833 9.12558 15.303C9.0452 15.2226 9.00005 15.1136 9.00005 14.9999V12.8571C9.00005 12.7434 9.0452 12.6344 9.12558 12.554C9.20595 12.4737 9.31496 12.4285 9.42862 12.4285H10.7143V10.7142Z" fill="url(#paint5_linear_31_6923)"/>
</g>
<defs>
<linearGradient id="paint0_linear_31_6923" x1="15.2143" y1="7.28592" x2="15.2143" y2="13.9288" gradientUnits="userSpaceOnUse">
<stop stop-color="#72A8CF"/>
<stop offset="1" stop-color="#1071AB"/>
</linearGradient>
<linearGradient id="paint1_linear_31_6923" x1="14.5715" y1="14.1431" x2="10.5" y2="14.1431" gradientUnits="userSpaceOnUse">
<stop stop-color="#0F6192"/>
<stop offset="1" stop-color="#1473AD"/>
</linearGradient>
<linearGradient id="paint2_linear_31_6923" x1="10.7143" y1="7.92843" x2="10.5" y2="13.2856" gradientUnits="userSpaceOnUse">
<stop stop-color="#72A8CF"/>
<stop offset="1" stop-color="#116394"/>
</linearGradient>
<linearGradient id="paint3_linear_31_6923" x1="10.5001" y1="8.78564" x2="10.5001" y2="17.1428" gradientUnits="userSpaceOnUse">
<stop stop-color="#36DD21"/>
<stop offset="1" stop-color="#34B238"/>
</linearGradient>
<linearGradient id="paint4_linear_31_6923" x1="12.0001" y1="16.0714" x2="7.28577" y2="16.0714" gradientUnits="userSpaceOnUse">
<stop stop-color="#34A93A"/>
<stop offset="1" stop-color="#34B537"/>
</linearGradient>
<linearGradient id="paint5_linear_31_6923" x1="7.71434" y1="10.0714" x2="7.71434" y2="15.4285" gradientUnits="userSpaceOnUse">
<stop stop-color="#35E11D"/>
<stop offset="1" stop-color="#31A137"/>
</linearGradient>
<clipPath id="clip0_31_6923">
<rect width="24" height="24" fill="white"/>
</clipPath>
</defs>
</svg>

<svg xmlns="http://www.w3.org/2000/svg" width="24" height="24" fill="none" viewBox="0 0 24 24"><g clip-path="url(#a)"><path fill="#F0F3FA" d="M0 0h24v24H0z"/><path fill="#35AF3B" fill-rule="evenodd" d="M12 19.286a7.286 7.286 0 1 0 0-14.572 7.286 7.286 0 0 0 0 14.572m0 .428a7.714 7.714 0 1 0 0-15.428 7.714 7.714 0 0 0 0 15.428" clip-rule="evenodd"/><path fill="url(#b)" fill-rule="evenodd" d="M16.286 6.643v7.5a.857.857 0 0 1-.857.857h-4.715a.857.857 0 0 1-.857-.857V9.43a.86.86 0 0 1 .857-.857h4.449zm-4.715 4.071a.43.43 0 0 1 .429-.428h2.143a.43.43 0 0 1 .428.428v2.143a.43.43 0 0 1-.428.429H12a.43.43 0 0 1-.428-.429z" clip-rule="evenodd"/><path fill="url(#c)" d="M14.572 12.857a.43.43 0 0 1-.43.429h-3.025c-.403 0-.891-.03-1.26-.643v1.5a.86.86 0 0 0 .857.857h3a.85.85 0 0 0 .857-.857z"/><path fill="url(#d)" d="M12.857 8.571h-2.143a.857.857 0 0 0-.857.857v3.215c.369.613.857.643 1.26.643H12a.43.43 0 0 1-.428-.429v-2.143a.43.43 0 0 1 .428-.428h.857z"/><path fill="url(#e)" fill-rule="evenodd" d="M7.286 8.786v7.5a.86.86 0 0 0 .857.857h4.714a.857.857 0 0 0 .857-.857V11.57a.857.857 0 0 0-.857-.857H8.41zM12 12.857a.43.43 0 0 0-.428-.428H9.429a.43.43 0 0 0-.429.428V15a.43.43 0 0 0 .429.428h2.143A.43.43 0 0 0 12 15z" clip-rule="evenodd"/><path fill="url(#f)" d="M7.286 14.786v1.5a.86.86 0 0 0 .857.857h3c.514 0 .857-.215.857-.857V15a.43.43 0 0 1-.428.428H8.357c-.428 0-.818-.137-1.071-.642"/><path fill="url(#g)" d="M10.714 10.714H8.41L7.286 8.786v6c.253.505.643.643 1.071.643H9.43a.43.43 0 0 1-.429-.43v-2.142a.43.43 0 0 1 .429-.428h1.285z"/></g><defs><linearGradient id="b" x1="15.214" x2="15.214" y1="7.286" y2="13.929" gradientUnits="userSpaceOnUse"><stop stop-color="#72A8CF"/><stop offset="1" stop-color="#1071AB"/></linearGradient><linearGradient id="c" x1="14.572" x2="10.5" y1="14.143" y2="14.143" gradientUnits="userSpaceOnUse"><stop stop-color="#0F6192"/><stop offset="1" stop-color="#1473AD"/></linearGradient><linearGradient id="d" x1="10.714" x2="10.5" y1="7.928" y2="13.286" gradientUnits="userSpaceOnUse"><stop stop-color="#72A8CF"/><stop offset="1" stop-color="#116394"/></linearGradient><linearGradient id="e" x1="10.5" x2="10.5" y1="8.786" y2="17.143" gradientUnits="userSpaceOnUse"><stop stop-color="#36DD21"/><stop offset="1" stop-color="#34B238"/></linearGradient><linearGradient id="f" x1="12" x2="7.286" y1="16.071" y2="16.071" gradientUnits="userSpaceOnUse"><stop stop-color="#34A93A"/><stop offset="1" stop-color="#34B537"/></linearGradient><linearGradient id="g" x1="7.714" x2="7.714" y1="10.071" y2="15.428" gradientUnits="userSpaceOnUse"><stop stop-color="#35E11D"/><stop offset="1" stop-color="#31A137"/></linearGradient><clipPath id="a"><path fill="#fff" d="M0 0h24v24H0z"/></clipPath></defs></svg>
